resc/svg/earth.svg

<svg width="309" height="282" viewBox="0 0 309 282" fill="none" xmlns="http://www.w3.org/2000/svg">
<g style="mix-blend-mode:overlay">
<path d="M199.5 0C89.3261 0 0 78.3562 0 175C0 271.644 89.3261 350 199.5 350C309.674 350 399 271.644 399 175C399 78.3562 309.674 0 199.5 0ZM358.551 132.679C357.57 131.833 356.44 131.104 355.127 130.667C350.837 129.194 332.683 139.46 329.94 134.4C328.144 131.031 324.503 136.558 320.331 134.517C318.319 133.54 312.7 126.933 310.173 127.735C304.986 129.369 318.136 141.94 321.71 143.587C325.085 141.342 336.008 136.748 338.369 143.019C342.874 154.86 325.983 167.84 317.355 174.679C304.47 184.917 306.881 168.058 298.086 162.137C293.481 159.031 293.531 152.41 288.859 150.121C286.781 149.085 277.222 139.446 277.322 138.148L277.039 140.583C275.46 141.633 272.101 136.646 271.736 135.844C271.736 140.19 279.799 147.102 282.475 150.587C287.014 156.552 289.458 165.244 295.044 170.115C298.02 172.74 309.441 183.575 312.417 183.356L327.729 176.983C338.518 179.229 302.276 224.19 298.834 229.76C295.992 234.442 301.145 245.977 300.73 251.49C300.247 257.863 294.512 259.933 289.092 263.404C283.273 267.123 284.637 274.371 279.749 277.025C271.087 281.706 264.836 296.946 252.5 296.873C248.86 296.858 233.365 302.181 231.337 296.975C229.757 293.212 227.63 290.34 225.418 286.621C223.24 282.975 225.169 279.183 222.509 275.96C220.68 273.715 214.546 268.64 213.98 265.985C213.947 263.696 215.942 256.769 218.685 255.558C222.526 253.837 219.417 248.821 218.951 245.89C218.153 240.683 214.463 236.381 210.057 233.363C203.523 228.958 206.915 225.458 208.428 219.158C208.428 216.154 206.333 212.217 201.744 213.383C192.268 215.804 195.161 206.894 188.245 207.302C183.274 207.608 179.217 210.379 174.596 211.604C168.794 213.121 162.842 210.394 157.09 209.767C133.465 207.156 125.752 183.458 131.919 166.367C132.535 163.567 130.008 158.39 131.121 156.217C133.765 151.083 139.184 145.25 143.889 141.327C146.549 139.11 149.958 139.679 153.083 137.958C157.904 135.304 157.971 129.821 162.692 126.452C169.409 121.669 178.586 121.771 187.33 120.735C192.002 120.196 209.774 116.827 212.567 119.86C212.567 120.429 215.776 128.771 212.251 128.29C219.533 128.625 229.891 139.315 236.79 136.821C240.331 135.523 239.034 125.971 246.316 130.594C250.722 133.365 270.422 134.604 274.512 131.615C277.039 129.792 278.436 117.921 275.393 116.579C277.338 118.271 265.119 118.402 263.988 118.023C261.96 117.381 260.082 119.7 256.84 118.387C258.785 119.19 246.017 113.167 253.182 108.558C250.173 110.483 247.38 108.019 244.138 110.148C241.894 111.737 245.169 112.787 241.977 114.188C236.906 116.448 233.083 106.458 231.187 105.335C229.226 104.213 214.163 94.9375 218.27 100.99L231.52 112.554C230.855 112.933 228.045 108.34 228.045 111.694C228.926 109.71 228.378 120.225 226.3 116.798C225.369 115.485 227.812 114.756 226.399 112.846C226.399 111.606 222.576 110.381 221.827 109.521C219.733 107.231 214.147 102.2 211.121 100.99C210.29 100.64 198.303 102.273 197.289 102.608C196.108 104.052 195.111 105.569 194.28 107.188C191.803 107.99 189.458 109.04 187.247 110.337L184.604 115.529C183.473 116.419 171.77 119.817 171.703 119.948C172.202 118.84 163.523 117.44 164.105 115.223C164.737 112.787 167.68 105.204 166.915 102.433C166.117 99.5312 184.953 106.619 186.167 98.9625C186.649 95.6521 186.948 91.7875 180.913 91.2188C182.06 91.3354 192.584 87.5875 194.33 85.9104C196.79 83.4458 202.409 79.3917 206.482 79.3917C211.237 79.3917 210.223 73.3104 212.401 70.3208C214.612 71.0938 211.221 75.8625 213.864 77.7875C213.698 76.2708 221.345 78.6188 222.077 78.2688C223.822 77.4521 233.565 77.9333 232.068 73.9083C230.389 69.825 232.933 71.0354 235.111 70.1896C234.778 70.3063 239.234 63.5104 241.146 63.5396C239.417 62.2417 234.529 65.1729 232.567 65.0417C227.447 64.6917 229.625 57.3854 231.553 55.2417C233.049 53.55 227.463 51.4792 227.397 54.7167C227.297 59.5583 222.177 63.9479 223.357 70.3938C225.169 80.1062 211.005 68.0458 209.791 68.7167C205.086 71.225 201.229 65.5667 203.673 62.1687C206.15 58.6979 212.152 58.8729 214.629 55.1687C216.358 52.5583 218.403 49.4958 221.079 47.5271C230.073 40.9062 232.534 46.2 241.511 46.9146C250.256 47.6146 244.471 48.7375 243.257 51.6833C242.093 54.4833 248.062 55.4896 250.123 53.1417C251.303 51.8 253.98 48.3875 255.127 45.8646C256.291 43.3125 264.737 42.9479 263.889 40.5417C309.109 57.2833 344.137 91.0729 358.551 132.679ZM173.798 77.5687L174.928 76.3L176.142 76.0229C176.84 75.5271 177.572 74.3021 178.652 74.5062C179.367 74.6375 181.079 75.8917 180.498 76.6646C179.883 77.4521 179.4 75.95 179.151 78.1375C178.852 80.6021 176.025 80.5729 173.947 81.375C172.501 81.9146 171.038 81.1125 172.451 79.8583L173.914 78.2833L173.798 77.5687ZM181.146 81.1417C181.911 80.4854 183.44 81.025 183.656 79.7708C183.889 78.5458 184.953 77.175 183.523 74.8854C183.158 74.2729 185.452 73.6896 184.371 72.8875L182.559 73.3542C182.559 73.3542 185.136 63.6125 188.611 68.0167L187.131 69.5188C189.375 71.4729 189.99 76.3729 190.705 79.5375C192.817 80.5 196.092 80.675 192.335 82.3375C194.28 82.0458 182.06 86.9167 180.448 84.9333C179.251 83.7229 185.718 82.9062 185.552 82.4104C185.485 82.25 180.281 82.1188 181.146 81.1417ZM204.92 29.4146L199.001 34.1687C193.016 38.5146 177.721 47.0458 169.193 44.45C160.481 41.825 141.811 54.1771 138.835 54.2646C137.721 54.3083 138.869 44.9167 144.82 44.2167C142.476 44.5229 161.329 35.8312 164.521 32.4771C175.793 30.3479 187.48 29.1667 199.5 29.1667L204.92 29.4146ZM120.365 46.7687C121.529 47.9646 124.987 48.1104 119.933 50.9687C116.89 52.5729 113.665 62.7667 110.822 62.7667C102.343 66.0187 101.812 56.3646 92.3851 68.7896C91.0884 70.4667 85.8183 71.0938 81.6786 72.2312C93.0667 62.1979 106.084 53.5792 120.365 46.7687ZM33.25 175C33.25 167.11 34.1644 159.425 35.5609 151.871L40.4154 154.569C42.294 156.537 42.294 165.054 43.225 167.854C45.5359 174.883 51.2715 178.806 55.6605 185.208C58.2374 189.015 62.5433 198.669 61.18 202.665C62.9921 200.054 79.1516 214.681 82.1109 217.729C89.0601 224.904 94.4134 233.596 83.125 240.683C79.4841 242.987 88.6777 257.308 83.9396 260.837L77.8715 262.208C74.1309 264.221 73.9646 267.998 75.1118 271.41C49.1435 245.671 33.25 211.969 33.25 175ZM271.769 90.0812C273.149 89.9354 269.99 92.5167 269.99 92.5167C270.539 96.25 273.681 98.2917 279.649 100.202C286.914 102.492 280.281 106.838 276.108 105.817C273.797 105.248 261.91 102.098 261.495 106.181C261.495 108.617 250.206 106.196 251.969 103.629C253.182 101.894 252.8 97.9854 255.061 95.4333C258.269 91.7146 261.378 93.7417 261.478 95.9C261.461 101.646 268.095 90.4604 271.769 90.0812Z" fill="#A3A3A3"/>
</g>
</svg>

<svg width="309" height="282" fill="none" xmlns="http://www.w3.org/2000/svg"><path d="M199.5 0C89.326 0 0 78.356 0 175s89.326 175 199.5 175S399 271.644 399 175 309.674 0 199.5 0zm159.051 132.679c-.981-.846-2.111-1.575-3.424-2.012-4.29-1.473-22.444 8.793-25.187 3.733-1.796-3.369-5.437 2.158-9.609.117-2.012-.977-7.631-7.584-10.158-6.782-5.187 1.634 7.963 14.205 11.537 15.852 3.375-2.245 14.298-6.839 16.659-.568 4.505 11.841-12.386 24.821-21.014 31.66-12.885 10.238-10.474-6.621-19.269-12.542-4.605-3.106-4.555-9.727-9.227-12.016-2.078-1.036-11.637-10.675-11.537-11.973l-.283 2.435c-1.579 1.05-4.938-3.937-5.303-4.739 0 4.346 8.063 11.258 10.739 14.743 4.539 5.965 6.983 14.657 12.569 19.528 2.976 2.625 14.397 13.46 17.373 13.241l15.312-6.373c10.789 2.246-25.453 47.207-28.895 52.777-2.842 4.682 2.311 16.217 1.896 21.73-.483 6.373-6.218 8.443-11.638 11.914-5.819 3.719-4.455 10.967-9.343 13.621-8.662 4.681-14.913 19.921-27.249 19.848-3.64-.015-19.135 5.308-21.163.102-1.58-3.763-3.707-6.635-5.919-10.354-2.178-3.646-.249-7.438-2.909-10.661-1.829-2.245-7.963-7.32-8.529-9.975-.033-2.289 1.962-9.216 4.705-10.427 3.841-1.721.732-6.737.266-9.668-.798-5.207-4.488-9.509-8.894-12.527-6.534-4.405-3.142-7.905-1.629-14.205 0-3.004-2.095-6.941-6.684-5.775-9.476 2.421-6.583-6.489-13.499-6.081-4.971.306-9.028 3.077-13.649 4.302-5.802 1.517-11.754-1.21-17.506-1.837-23.625-2.611-31.338-26.309-25.171-43.4.616-2.8-1.911-7.977-.798-10.15 2.644-5.134 8.063-10.967 12.768-14.89 2.66-2.217 6.069-1.648 9.194-3.369 4.821-2.654 4.888-8.137 9.609-11.506 6.717-4.783 15.894-4.681 24.638-5.717 4.672-.539 22.444-3.908 25.237-.875 0 .569 3.209 8.911-.316 8.43 7.282.335 17.64 11.025 24.539 8.531 3.541-1.298 2.244-10.85 9.526-6.227 4.406 2.771 24.106 4.01 28.196 1.021 2.527-1.823 3.924-13.694.881-15.036 1.945 1.692-10.274 1.823-11.405 1.444-2.028-.642-3.906 1.677-7.148.364 1.945.803-10.823-5.22-3.658-9.829-3.009 1.925-5.802-.539-9.044 1.59-2.244 1.589 1.031 2.639-2.161 4.04-5.071 2.26-8.894-7.73-10.79-8.853-1.961-1.122-17.024-10.397-12.917-4.345l13.25 11.564c-.665.379-3.475-4.214-3.475-.86.881-1.984.333 8.531-1.745 5.104-.931-1.313 1.512-2.042.099-3.952 0-1.24-3.823-2.465-4.572-3.325-2.094-2.29-7.68-7.321-10.706-8.531-.831-.35-12.818 1.283-13.832 1.618a25.83 25.83 0 0 0-3.009 4.58 35.419 35.419 0 0 0-7.033 3.149l-2.643 5.192c-1.131.89-12.834 4.288-12.901 4.419.499-1.108-8.18-2.508-7.598-4.725.632-2.436 3.575-10.019 2.81-12.79-.798-2.902 18.038 4.186 19.252-3.47.482-3.31.781-7.175-5.254-7.744 1.147.116 11.671-3.631 13.417-5.309 2.46-2.464 8.079-6.518 12.152-6.518 4.755 0 3.741-6.082 5.919-9.071 2.211.773-1.18 5.541 1.463 7.466-.166-1.516 7.481.832 8.213.482 1.745-.817 11.488-.336 9.991-4.36-1.679-4.084.865-2.874 3.043-3.72-.333.117 4.123-6.679 6.035-6.65-1.729-1.297-6.617 1.634-8.579 1.503-5.12-.35-2.942-7.657-1.014-9.8 1.496-1.692-4.09-3.763-4.156-.525-.1 4.841-5.22 9.23-4.04 15.677 1.812 9.712-12.352-2.348-13.566-1.677-4.705 2.508-8.562-3.15-6.118-6.548 2.477-3.471 8.479-3.296 10.956-7 1.729-2.61 3.774-5.673 6.45-7.642 8.994-6.62 11.455-1.327 20.432-.612 8.745.7 2.96 1.822 1.746 4.768-1.164 2.8 4.805 3.807 6.866 1.459 1.18-1.342 3.857-4.755 5.004-7.277 1.164-2.553 9.61-2.917 8.762-5.323 45.22 16.741 80.248 50.53 94.662 92.137zm-184.753-55.11l1.13-1.269 1.214-.277c.698-.496 1.43-1.72 2.51-1.517.715.132 2.427 1.386 1.846 2.159-.615.787-1.098-.715-1.347 1.472-.299 2.465-3.126 2.436-5.204 3.238-1.446.54-2.909-.263-1.496-1.517l1.463-1.575-.116-.714zm7.348 3.573c.765-.657 2.294-.117 2.51-1.371.233-1.225 1.297-2.596-.133-4.886-.365-.612 1.929-1.195.848-1.998l-1.812.467s2.577-9.742 6.052-5.337l-1.48 1.502c2.244 1.954 2.859 6.854 3.574 10.018 2.112.963 5.387 1.138 1.63 2.8 1.945-.291-10.275 4.58-11.887 2.596-1.197-1.21 5.27-2.027 5.104-2.523-.067-.16-5.271-.291-4.406-1.268zm23.774-51.727l-5.919 4.754c-5.985 4.346-21.28 12.877-29.808 10.281-8.712-2.625-27.382 9.727-30.358 9.815-1.114.043.034-9.348 5.985-10.048-2.344.306 16.509-8.386 19.701-11.74 11.272-2.13 22.959-3.31 34.979-3.31l5.42.248zm-84.555 17.354c1.164 1.196 4.622 1.341-.432 4.2-3.043 1.604-6.268 11.798-9.111 11.798-8.479 3.252-9.01-6.402-18.437 6.023-1.297 1.677-6.567 2.304-10.706 3.441 11.388-10.033 24.405-18.652 38.686-25.462zM33.25 175c0-7.89.914-15.575 2.31-23.129l4.855 2.698c1.879 1.968 1.879 10.485 2.81 13.285 2.31 7.029 8.047 10.952 12.435 17.354 2.577 3.807 6.883 13.461 5.52 17.457 1.812-2.611 17.972 12.016 20.93 15.064 6.95 7.175 12.303 15.867 1.015 22.954-3.64 2.304 5.553 16.625.815 20.154l-6.069 1.371c-3.74 2.013-3.906 5.79-2.76 9.202C49.144 245.671 33.25 211.969 33.25 175zm238.519-84.919c1.38-.146-1.779 2.436-1.779 2.436.549 3.733 3.691 5.775 9.659 7.685 7.265 2.29.632 6.636-3.541 5.615-2.311-.569-14.198-3.719-14.613.364 0 2.436-11.289.015-9.526-2.552 1.213-1.735.831-5.644 3.092-8.196 3.208-3.718 6.317-1.691 6.417.467-.017 5.746 6.617-5.44 10.291-5.819z" fill="#A3A3A3"/></svg>
